svgs/light/arrow-up-from-line.svg

<svg xmlns="http://www.w3.org/2000/svg" viewBox="0 0 384 512"><!-- Font Awesome Pro 6.0.0-alpha2 by @fontawesome - https://fontawesome.com License - https://fontawesome.com/license (Commercial License) --><path d="M59.312 203.312L176 86.625V384C176 392.844 183.156 400 192 400S208 392.844 208 384V86.625L324.688 203.312C330.938 209.562 341.063 209.562 347.312 203.312S353.562 186.937 347.312 180.688L203.312 36.688C200.188 33.562 196.094 32 192 32S183.812 33.562 180.688 36.688L36.688 180.688C30.438 186.938 30.438 197.063 36.688 203.312S53.062 209.562 59.312 203.312ZM368 448H16C7.156 448 0 455.156 0 464S7.156 480 16 480H368C376.844 480 384 472.844 384 464S376.844 448 368 448Z"/></svg>

<svg xmlns="http://www.w3.org/2000/svg" viewBox="0 0 384 512"><!--! Font Awesome Pro 6.3.0 by @fontawesome - https://fontawesome.com License - https://fontawesome.com/license (Commercial License) Copyright 2023 Fonticons, Inc. --><path d="M59.31 203.3L176 86.63V384c0 8.844 7.156 16 16 16s16-7.156 16-16V86.63l116.7 116.7c6.25 6.25 16.38 6.25 22.62 0s6.25-16.38 0-22.62l-144-144C200.2 33.56 196.1 32 192 32S183.8 33.56 180.7 36.69l-144 144c-6.25 6.25-6.25 16.38 0 22.62S53.06 209.6 59.31 203.3zM368 448h-352C7.156 448 0 455.2 0 464S7.156 480 16 480h352c8.844 0 16-7.156 16-16S376.8 448 368 448z"/></svg>
